assets/images/member/left.svg

<svg height="13" viewBox="0 0 6 13" width="6" xmlns="http://www.w3.org/2000/svg"><path d="m708.262589 64.097931c.659617.6388225.69094 1.7461021.068705 2.4275157l-.101133-.0979277c-.659602-.6388258-.690929-1.7461012-.068667-2.427519zm-1.037439 3.8985077c.233948-1.1718613-.485575-2.3170913-1.57743-2.5107208l-.167381-.029683c-.233949 1.1718654.485575 2.3170954 1.577433 2.5107207zm-3.032514.2616841c1.256619-.1723293 2.390147.8311504 2.485066 2.1999242l-.192638.026429c-1.256618.1723252-2.390146-.8311504-2.485064-2.1999655zm3.908002 5.6739733c-.235877-1.7267627-1.758297-2.8872843-3.337666-2.544203l-.242115.0525689c.235865 1.726804 1.758289 2.8872843 3.337655 2.5442443zm1.899362 2.60532c-.788873-1.5924703-2.637234-2.1616434-4.08098-1.2566983l-.050826.03188c.788881 1.5924703 2.637245 2.1616434 4.080972 1.2566983z" fill="#6d3f1a" fill-rule="evenodd" transform="translate(-704 -64)"/></svg>

<?xml version="1.0" encoding="UTF-8"?>
<svg width="6px" height="13px" viewBox="0 0 6 13" version="1.1" xmlns="http://www.w3.org/2000/svg" xmlns:xlink="http://www.w3.org/1999/xlink">
    <title>切图</title>
    <g id="会员" stroke="none" stroke-width="1" fill="none" fill-rule="evenodd">
        <g id="切图" transform="translate(-704.000000, -64.000000)" fill="#6D3F1A">
            <path d="M708.262589,64.097931 C708.922206,64.7367535 708.953529,65.8440331 708.331294,66.5254467 L708.230161,66.427519 C707.570559,65.7886932 707.539232,64.6814178 708.161494,64 L708.262589,64.097931 Z M707.22515,67.9964387 C707.459098,66.8245774 706.739575,65.6793474 705.64772,65.4857179 L705.480339,65.4560349 C705.24639,66.6279003 705.965914,67.7731303 707.057772,67.9667556 L707.22515,67.9964387 Z M704.192636,68.2581228 C705.449255,68.0857935 706.582783,69.0892732 706.677702,70.458047 L706.485064,70.484476 C705.228446,70.6568012 704.094918,69.6533256 704,68.2845105 L704.192636,68.2581228 Z M708.100638,73.9320961 C707.864761,72.2053334 706.342341,71.0448118 704.762972,71.3878931 L704.520857,71.440462 C704.756722,73.167266 706.279146,74.3277463 707.858512,73.9847063 L708.100638,73.9320961 Z M710,76.5374161 C709.211127,74.9449458 707.362766,74.3757727 705.91902,75.2807178 L705.868194,75.3125978 C706.657075,76.9050681 708.505439,77.4742412 709.949166,76.5692961 L710,76.5374161 Z" id="形状"></path>
        </g>
    </g>
</svg>
